packages/foundations/assets/icons/functional/images/human/cigarette_disabled_24.svg

<svg width="24" height="24" viewBox="0 0 24 24" fill="none" xmlns="http://www.w3.org/2000/svg">
<g clip-path="url(#clip0_185_1114)">
<path fill-rule="evenodd" clip-rule="evenodd" d="M19.89 2.23303C20.2639 1.89061 20.8495 1.95573 21.21 2.31622C21.5705 2.6767 21.623 3.2828 21.2932 3.63622L11.9169 13.0228L19.7176 13.0233C20.3421 13.0233 20.7884 13.1179 21.2071 13.3419C21.6258 13.5658 21.9604 13.9004 22.1843 14.3191C22.3822 14.6892 22.5029 15.0248 22.5029 16.024C22.5029 17.0233 22.4105 17.3046 22.1843 17.7276C21.9604 18.1463 21.6258 18.4809 21.2071 18.7048C20.837 18.9027 20.4535 18.9981 19.944 19.0189L5.91686 19.0228L3.11576 21.8136C2.74943 22.0909 2.15624 22.0909 1.79576 21.7304C1.43527 21.3699 1.39338 20.7296 1.71257 20.4104L19.89 2.23303ZM6.58886 13.0228L4.58686 15.0248C4.43106 15.0213 4.2898 15.0214 4.16306 15.0249C3.97296 15.0302 3.82673 15.0295 3.68208 15.1575C3.53742 15.2855 3.51078 15.4554 3.50444 15.6835C3.50021 15.8356 3.50002 15.977 3.50386 16.1078L1.84486 17.7668L1.8214 17.7276C1.62349 17.3575 1.50286 17.0233 1.50286 16.024C1.50286 15.0248 1.59521 14.742 1.8214 14.3191C2.04533 13.9004 2.37992 13.5658 2.79863 13.3419C3.1687 13.1439 3.63674 13.0233 4.28814 13.0233C4.72241 13.0233 5.48932 13.0231 6.58886 13.0228ZM9.91486 15.0248L7.91686 17.0228L19.7176 17.0233C19.89 17.0233 20.1447 17.0726 20.3421 16.8831C20.5395 16.6936 20.5029 16.3646 20.5029 16.024C20.5029 15.6835 20.5427 15.3707 20.3658 15.1813C20.1889 14.992 19.89 15.0297 19.7176 15.0249L9.91486 15.0248ZM2.46836 2.20836C2.89883 1.86236 3.52828 1.93085 3.87428 2.36132C5.00295 3.76559 5.05159 5.3599 4.05052 6.90679L3.81673 7.25686C3.43614 7.88181 3.43744 8.47197 3.68208 9.05041C3.72654 9.15556 3.82013 9.3171 3.96284 9.53503C4.22365 9.95801 4.13473 10.5189 3.73737 10.8383C3.30689 11.1843 2.67744 11.1158 2.33145 10.6853C2.18455 10.5026 2.00256 10.2137 1.84004 9.82945C1.35153 8.67436 1.36509 7.39027 2.14813 6.15258L2.39085 5.7907C2.91603 4.96931 2.88136 4.31843 2.31539 3.61427C1.9694 3.1838 2.03789 2.55435 2.46836 2.20836Z" fill="#1A1C1F"/>
</g>
<defs>
<clipPath id="clip0_185_1114">
<rect width="24" height="24" fill="white"/>
</clipPath>
</defs>
</svg>

<svg xmlns="http://www.w3.org/2000/svg" width="24" height="24" fill="none"><g clip-path="url(#a)"><path fill="#1A1C1F" fill-rule="evenodd" d="M19.89 2.233c.374-.342.96-.277 1.32.083s.413.967.083 1.32l-9.376 9.387h7.8c.625 0 1.071.095 1.49.319s.753.558.977.977c.198.37.319.706.319 1.705s-.093 1.28-.319 1.704a2.36 2.36 0 0 1-.977.977c-.37.198-.754.293-1.263.314l-14.027.004-2.801 2.79c-.367.278-.96.278-1.32-.083-.36-.36-.403-1-.083-1.32zM6.589 13.023l-2.002 2.002a9 9 0 0 0-.424 0c-.19.005-.336.005-.48.133-.146.128-.172.297-.179.526a8 8 0 0 0 0 .424l-1.66 1.659-.023-.04c-.198-.37-.318-.704-.318-1.703s.092-1.282.318-1.705c.224-.419.559-.753.978-.977.37-.198.838-.319 1.49-.319zm3.326 2.002-1.998 1.998h11.8c.173 0 .428.05.625-.14.198-.19.16-.518.16-.859s.04-.653-.136-.843-.476-.151-.648-.156zM2.468 2.208a1 1 0 0 1 1.406.153c1.129 1.405 1.178 2.999.177 4.546l-.234.35c-.38.625-.38 1.215-.135 1.793q.067.159.28.485a1 1 0 0 1-1.63 1.15 3.7 3.7 0 0 1-.492-.856c-.488-1.155-.475-2.439.308-3.676l.243-.362c.525-.822.49-1.473-.076-2.177a1 1 0 0 1 .153-1.406" clip-rule="evenodd"/></g><defs><clipPath id="a"><path fill="#fff" d="M0 0h24v24H0z"/></clipPath></defs></svg>
